packages/tokens/icons/variant/size32Px.svg

<svg viewBox="0 0 32 32" fill="none" xmlns="http://www.w3.org/2000/svg" width="1em" height="1em"><circle cx="11" cy="4" r="1.5" stroke="currentColor" stroke-linecap="round"/><circle cx="11" cy="28" r="1.5" stroke="currentColor" stroke-linecap="round"/><circle cx="21" cy="4" r="1.5" stroke="currentColor" stroke-linecap="round"/><circle cx="21" cy="28" r="1.5" stroke="currentColor" stroke-linecap="round"/><circle cx="28" cy="16" r="1.5" stroke="currentColor" stroke-linecap="round"/><circle cx="4" cy="16" r="1.5" stroke="currentColor" stroke-linecap="round"/><path d="M20.6025 16.6014L20.6025 16.6014C20.6074 16.5929 20.6123 16.5843 20.6173 16.5758C20.7204 16.3974 20.8249 16.2164 20.8895 16.0349C20.9673 15.8162 20.9872 15.6043 20.9527 15.3595C20.907 15.0345 20.666 14.0655 20.4346 13.1741C20.2006 12.2723 19.9562 11.3745 19.8909 11.1719C19.7997 10.8889 19.6199 10.6294 19.3464 10.4579C19.0707 10.285 18.7379 10.2254 18.3841 10.277C18.0894 10.3199 17.1463 10.5729 16.2665 10.8225C15.3817 11.0735 14.4575 11.3506 14.1936 11.4571C13.9644 11.5497 13.7908 11.6729 13.6404 11.8496C13.5154 11.9963 13.411 12.1773 13.308 12.3559C13.3031 12.3644 13.2982 12.3729 13.2932 12.3814L9.94364 18.1831C9.60048 18.7775 9.79432 19.5441 10.3943 19.8905L15.5489 22.8665C16.1489 23.2129 16.9097 22.9975 17.2529 22.4031L20.6025 16.6014Z" stroke="currentColor"/><circle cx="17.366" cy="13.366" r="0.5" transform="rotate(30 17.366 13.366)" stroke="currentColor"/></svg>

<svg xmlns="http://www.w3.org/2000/svg" fill="none" viewBox="0 0 32 32" width="1em" height="1em"><circle cx="11" cy="4" r="1.5" stroke="currentColor" stroke-linecap="round"/><circle cx="11" cy="28" r="1.5" stroke="currentColor" stroke-linecap="round"/><circle cx="21" cy="4" r="1.5" stroke="currentColor" stroke-linecap="round"/><circle cx="21" cy="28" r="1.5" stroke="currentColor" stroke-linecap="round"/><circle cx="28" cy="16" r="1.5" stroke="currentColor" stroke-linecap="round"/><circle cx="4" cy="16" r="1.5" stroke="currentColor" stroke-linecap="round"/><path stroke="currentColor" d="m20.602 16.601.015-.025c.103-.179.208-.36.273-.541.077-.219.097-.43.063-.675-.046-.325-.287-1.294-.518-2.186-.234-.902-.479-1.8-.544-2.002a1.304 1.304 0 0 0-.545-.714 1.403 1.403 0 0 0-.962-.181c-.295.043-1.238.296-2.117.546-.885.25-1.81.528-2.073.634-.23.093-.403.216-.554.393a3.412 3.412 0 0 0-.347.531l-3.35 5.802a1.249 1.249 0 0 0 .451 1.707l5.155 2.976c.6.347 1.36.131 1.704-.463l3.35-5.802Z"/><circle cx="17.366" cy="13.366" r=".5" stroke="currentColor" transform="rotate(30 17.366 13.366)"/></svg>
